X: 28644
T: Musical Doctor, The
R: jig
M: 6/8
K: Gmajor
|:DGG GFG|D=FF FEF|DGG GFG|Add cAF|
DGG GFG|D=FF FEF|DCD =FGA|1 BGF G2 F:|2 BGF G2 A||
|:dgg gag|fdg fdc|dgg gag|fdc d2 c|
dgg gag|fdg fdc|AGA cAG|1 AGG G2 A:|2 AGG G2 F||

